X: 1
T: The Lakes Of Ponchartrain
R: waltz
M: 3/4
L: 1/8
K: Amaj
|:E2|A4 f2|e4 fe|c2 B2 e2|c4 B2|
A F3 G2|A4 A2|(A6 |A4) e2|
e4 c2|e2 f2 g2|a4 a2|g2 f2 e2|
c4 B2|c2 d2 e2|(f6 | f4) f2|
e4 c2|e2 f2 g2|a4 a2|g2 f2 e2|
c4 B2|c2 d2 e2|(f6 | f4) A2|
A4 f2|e4 fe|c2 B2 e2|c4 B2|
A F3 G2|A4 A2|(A6 |A4) :|


Tune 896	Setting 21245

